; generated by Slic3r 1.3.0 on 2018-11-22 at 16:27:44

; external perimeters extrusion width = 0.44mm (1.59mm^3/s)
; perimeters extrusion width = 0.56mm (4.14mm^3/s)
; infill extrusion width = 0.50mm (5.48mm^3/s)
; solid infill extrusion width = 0.56mm (2.07mm^3/s)
; top infill extrusion width = 0.56mm (1.55mm^3/s)

M190 S70 ; set bed temperature and wait for it to be reached
M104 S210 ; set temperature
G28 ; home all axes
G1 Z15 F5000 ; lift nozzle
G92 E0
G1 F200 E3
; Filament gcode

M109 S210 ; set temperature and wait for it to be reached
G21 ; set units to millimeters
G90 ; use absolute coordinates
M82 ; use absolute distances for extrusion
G92 E0
M106 S255
G1 Z0.350 F3600.000
G1 E-4.50000 F1800.00000
G92 E0
G1 X126.099 Y138.046 F3600.000
G1 E4.50000 F1800.00000
G1 F1500
G1 X126.556 Y137.642 E4.55547
G1 X127.102 Y137.196 E4.61960
G1 X127.598 Y136.825 E4.67589
G1 X128.187 Y136.420 E4.74087
G1 X129.226 Y135.793 E4.85127
G1 X129.894 Y135.444 E4.91983
G1 X130.431 Y135.191 E4.97380
G1 X131.071 Y134.920 E5.03693
G1 X131.641 Y134.705 E5.09237
G1 X132.319 Y134.480 E5.15733
G1 X133.000 Y134.287 E5.22170
G1 X134.239 Y134.016 E5.33694
G1 X135.021 Y133.897 E5.40890
G1 X135.629 Y133.830 E5.46451
G1 X136.297 Y133.784 E5.52538
G1 X137.085 Y133.765 E5.59708
G1 X163.240 Y133.773 E7.97540
G1 X164.389 Y133.837 E8.07996
G1 X165.624 Y133.998 E8.19327
G1 X166.789 Y134.239 E8.30140
G1 X167.849 Y134.538 E8.40154
G1 X168.464 Y134.749 E8.46072
G1 X169.420 Y135.131 E8.55433
G1 X170.042 Y135.419 E8.61665
G1 X170.833 Y135.833 E8.69786
G1 X171.442 Y136.192 E8.76211
G1 X172.092 Y136.614 E8.83256
G1 X172.720 Y137.067 E8.90295
G1 X173.401 Y137.614 E8.98239
G1 X174.069 Y138.212 E9.06396
G1 X174.565 Y138.701 E9.12726
G1 X175.158 Y139.347 E9.20693
G1 X175.631 Y139.917 E9.27434
G1 X176.084 Y140.516 E9.34259
G1 X176.586 Y141.256 E9.42392
G1 X176.971 Y141.890 E9.49136
G1 X177.329 Y142.544 E9.55922
G1 X177.649 Y143.198 E9.62537
G1 X177.988 Y143.987 E9.70343
G1 X178.285 Y144.794 E9.78171
G1 X178.479 Y145.404 E9.83987
G1 X178.691 Y146.194 E9.91421
G1 X178.861 Y146.985 E9.98784
G1 X178.990 Y147.782 E10.06121
G1 X179.078 Y148.547 E10.13128
G1 X179.131 Y149.379 E10.20701
G1 X179.143 Y150.085 E10.27124
G1 X179.115 Y150.953 E10.35022
G1 X179.049 Y151.743 E10.42227
G1 X178.942 Y152.544 E10.49577
G1 X178.784 Y153.396 E10.57461
G1 X178.618 Y154.096 E10.64001
G1 X178.374 Y154.936 E10.71955
G1 X178.039 Y155.883 E10.81087
G1 X177.604 Y156.898 E10.91131
G1 X177.166 Y157.763 E10.99941
G1 X176.591 Y158.737 E11.10235
G1 X175.941 Y159.680 E11.20643
G1 X175.299 Y160.489 E11.30036
G1 X174.572 Y161.290 E11.39872
G1 X173.892 Y161.953 E11.48507
G1 X172.975 Y162.734 E11.59459
G1 X172.180 Y163.324 E11.68460
G1 X171.321 Y163.883 E11.77784
G1 X170.480 Y164.359 E11.86571
G1 X169.563 Y164.806 E11.95846
G1 X168.523 Y165.230 E12.06061
G1 X167.508 Y165.567 E12.15779
G1 X166.578 Y165.811 E12.24523
G1 X165.758 Y165.979 E12.32133
G1 X164.882 Y166.111 E12.40191
G1 X164.090 Y166.188 E12.47423
G1 X163.153 Y166.229 E12.55951
G1 X136.998 Y166.235 E14.93776
G1 X135.733 Y166.179 E15.05290
G1 X134.537 Y166.034 E15.16246
G1 X133.413 Y165.815 E15.26661
G1 X132.711 Y165.635 E15.33253
G1 X132.146 Y165.466 E15.38618
G1 X131.117 Y165.098 E15.48552
G1 X130.179 Y164.693 E15.57843
G1 X129.318 Y164.257 E15.66614
G1 X128.348 Y163.684 E15.76863
G1 X127.397 Y163.028 E15.87360
G1 X126.592 Y162.389 E15.96709
G1 X125.788 Y161.661 E16.06576
G1 X125.130 Y160.985 E16.15153
G1 X124.462 Y160.210 E16.24456
G1 X123.755 Y159.269 E16.35158
G1 X123.196 Y158.408 E16.44493
G1 X122.664 Y157.459 E16.54382
G1 X122.274 Y156.652 E16.62531
G1 X121.849 Y155.609 E16.72782
G1 X121.514 Y154.600 E16.82448
G1 X121.232 Y153.504 E16.92738
G1 X121.068 Y152.653 E17.00619
G1 X120.914 Y151.455 E17.11597
G1 X120.853 Y150.379 E17.21394
G1 X120.866 Y149.251 E17.31655
G1 X120.943 Y148.258 E17.40715
G1 X121.078 Y147.285 E17.49646
G1 X121.269 Y146.329 E17.58507
G1 X121.566 Y145.227 E17.68887
G1 X121.891 Y144.276 E17.78024
G1 X122.304 Y143.283 E17.87805
G1 X122.827 Y142.234 E17.98458
G1 X123.346 Y141.348 E18.07796
G1 X123.888 Y140.543 E18.16621
G1 X124.518 Y139.720 E18.26050
G1 X125.295 Y138.838 E18.36736
G1 X126.055 Y138.087 E18.46452
G1 E13.96452 F1800.00000
G92 E0
G1 X167.620 Y155.705 F3600.000
G1 E4.50000 F1800.00000
G1 F1500
G1 X166.898 Y156.244 E4.58189
G1 X166.177 Y156.656 E4.65741
G1 X165.418 Y156.982 E4.73255
G1 X165.216 Y157.047 E4.75185
G1 X164.620 Y157.223 E4.80831
G1 X163.805 Y157.371 E4.88366
G1 X162.894 Y157.425 E4.96668
G1 X162.239 Y157.391 E5.02625
G1 X161.335 Y157.254 E5.10944
G1 X160.443 Y156.995 E5.19386
G1 X159.642 Y156.649 E5.27323
G1 X159.041 Y156.318 E5.33557
G1 X158.296 Y155.785 E5.41893
G1 X157.777 Y155.322 E5.48212
G1 X157.188 Y154.674 E5.56173
G1 X156.698 Y153.987 E5.63845
G1 X156.294 Y153.262 E5.71391
G1 X155.973 Y152.494 E5.78969
G1 X155.739 Y151.693 E5.86550
G1 X155.596 Y150.872 E5.94132
G1 X155.545 Y150.039 E6.01715
G1 X155.587 Y149.207 E6.09297
G1 X155.722 Y148.384 E6.16880
G1 X155.952 Y147.563 E6.24627
G1 X157.007 Y145.595 E6.44935
G1 X157.130 Y145.395 E6.47070
G1 X158.294 Y144.211 E6.62167
G1 X159.683 Y143.323 E6.77159
G1 X160.249 Y143.084 E6.82750
G1 X160.446 Y142.982 E6.84763
G1 X161.230 Y142.689 E6.92371
G1 X162.046 Y142.487 E7.00020
G1 X162.887 Y142.377 E7.07728
G1 X163.695 Y142.365 E7.15081
G1 X164.595 Y142.447 E7.23297
G1 X165.306 Y142.599 E7.29909
G1 X165.485 Y142.665 E7.31640
G1 X166.248 Y143.050 E7.39410
G1 X166.959 Y143.515 E7.47135
G1 X167.610 Y144.052 E7.54808
G1 X168.192 Y144.654 E7.62425
G1 X168.701 Y145.312 E7.69986
G1 X169.124 Y146.006 E7.77379
G1 X169.522 Y146.722 E7.84828
G1 X169.872 Y147.575 E7.93213
G1 X170.098 Y148.378 E8.00797
G1 X170.252 Y149.529 E8.11353
G1 X170.278 Y149.935 E8.15055
G1 X170.239 Y150.766 E8.22620
G1 X170.108 Y151.589 E8.30200
G1 X169.859 Y152.466 E8.38486
G1 X169.424 Y153.448 E8.48252
G1 X169.308 Y153.666 E8.50493
G1 X168.755 Y154.519 E8.59740
G1 X168.181 Y155.188 E8.67754
G1 X167.664 Y155.665 E8.74151
G1 X167.637 Y155.773 F3600.000
G1 E4.24151 F1800.00000
G92 E0
G1 X167.290 Y142.977 F3600.000
G1 E4.50000 F1800.00000
G1 F1500
G1 X167.502 Y142.691 E4.53237
G1 X167.876 Y142.940 E4.57317
G1 X168.525 Y143.444 E4.64790
G1 X169.117 Y144.002 E4.72190
G1 X169.685 Y144.652 E4.80038
G1 X170.157 Y145.310 E4.87396
G1 X170.565 Y146.010 E4.94772
G1 X170.943 Y146.837 E5.03040
G1 X171.199 Y147.587 E5.10242
G1 X171.401 Y148.441 E5.18218
G1 X171.470 Y148.881 E5.22276
G1 X171.522 Y149.401 E5.27026
G1 X171.540 Y150.226 E5.34532
G1 X171.511 Y150.750 E5.39297
G1 X171.463 Y151.170 E5.43144
G1 X171.324 Y151.929 E5.50163
G1 X171.080 Y152.790 E5.58296
G1 X170.781 Y153.545 E5.65680
G1 X170.580 Y153.963 E5.69900
G1 X170.357 Y154.366 E5.74084
G1 X169.906 Y155.057 E5.81594
G1 X169.622 Y155.429 E5.85848
G1 X169.315 Y155.787 E5.90136
G1 X168.808 Y156.302 E5.96709
G1 X168.183 Y156.834 E6.04164
G1 X167.605 Y157.243 E6.10602
G1 X166.902 Y157.653 E6.18006
G1 X166.492 Y157.854 E6.22161
G1 X166.075 Y158.030 E6.26277
G1 X165.325 Y158.286 E6.33480
G1 X164.902 Y158.398 E6.37460
G1 X164.031 Y158.558 E6.45513
G1 X163.511 Y158.610 E6.50263
G1 X162.686 Y158.628 E6.57769
G1 X162.163 Y158.598 E6.62534
G1 X161.742 Y158.551 E6.66381
G1 X160.983 Y158.412 E6.73400
G1 X160.123 Y158.167 E6.81533
G1 X159.367 Y157.869 E6.88917
G1 X158.949 Y157.667 E6.93138
G1 X158.546 Y157.445 E6.97322
G1 X157.855 Y156.993 E7.04831
G1 X157.483 Y156.709 E7.09085
G1 X157.125 Y156.403 E7.13373
G1 X156.610 Y155.896 E7.19946
G1 X156.079 Y155.271 E7.27401
G1 X155.670 Y154.693 E7.33839
G1 X155.259 Y153.990 E7.41244
G1 X155.059 Y153.579 E7.45398
G1 X154.882 Y153.163 E7.49514
G1 X154.626 Y152.413 E7.56717
G1 X154.514 Y151.990 E7.60698
G1 X154.354 Y151.119 E7.68750
G1 X154.303 Y150.599 E7.73500
G1 X154.285 Y149.780 E7.80951
G1 X154.336 Y149.029 E7.87796
G1 X154.395 Y148.604 E7.91695
G1 X154.477 Y148.175 E7.95662
G1 X154.679 Y147.412 E8.02842
G1 X154.826 Y146.983 E8.06963
G1 X154.998 Y146.558 E8.11136
G1 X155.360 Y145.822 E8.18593
G1 X155.594 Y145.424 E8.22792
G1 X155.852 Y145.037 E8.27023
G1 X156.356 Y144.388 E8.34496
G1 X156.914 Y143.795 E8.41897
G1 X157.564 Y143.227 E8.49745
G1 X158.222 Y142.756 E8.57102
G1 X158.923 Y142.347 E8.64478
G1 X159.750 Y141.970 E8.72746
G1 X160.499 Y141.714 E8.79949
G1 X160.923 Y141.602 E8.83929
G1 X161.353 Y141.511 E8.87927
G1 X162.225 Y141.397 E8.95927
G1 X163.047 Y141.372 E9.03407
G1 X163.276 Y141.386 E9.05486
G1 X163.267 Y141.747 E9.08765
G1 X162.842 Y141.753 E9.12631
G1 X161.930 Y141.872 E9.20990
G1 X161.045 Y142.091 E9.29285
G1 X160.192 Y142.409 E9.37564
G1 X159.983 Y142.518 E9.39700
G1 X159.391 Y142.768 E9.45547
G1 X157.898 Y143.723 E9.61661
G1 X156.635 Y145.007 E9.78044
G1 X156.465 Y145.283 E9.80992
G1 X155.369 Y147.329 E10.02092
G1 X155.111 Y148.248 E10.10778
G1 X154.965 Y149.140 E10.18995
G1 X154.919 Y150.043 E10.27214
G1 X154.974 Y150.945 E10.35430
G1 X155.130 Y151.835 E10.43646
G1 X155.383 Y152.702 E10.51863
G1 X155.731 Y153.536 E10.60080
G1 X156.170 Y154.322 E10.68262
G1 X156.701 Y155.067 E10.76585
G1 X157.337 Y155.766 E10.85180
G1 X157.905 Y156.273 E10.92100
G1 X158.707 Y156.848 E11.01075
G1 X159.366 Y157.211 E11.07919
G1 X160.232 Y157.584 E11.16486
G1 X161.200 Y157.865 E11.25656
G1 X162.176 Y158.014 E11.34630
G1 X162.896 Y158.051 E11.41186
G1 X163.880 Y157.992 E11.50146
G1 X164.765 Y157.832 E11.58328
G1 X165.637 Y157.568 E11.66613
G1 X166.456 Y157.216 E11.74720
G1 X167.239 Y156.769 E11.82917
G1 X167.967 Y156.236 E11.91118
G1 X168.632 Y155.622 E11.99350
G1 X169.256 Y154.894 E12.08075
G1 X169.847 Y153.983 E12.17941
G1 X169.987 Y153.722 E12.20636
G1 X170.448 Y152.679 E12.31010
G1 X170.719 Y151.724 E12.40030
G1 X170.861 Y150.830 E12.48264
G1 X170.904 Y149.930 E12.56457
G1 X170.875 Y149.468 E12.60670
G1 X170.712 Y148.251 E12.71829
G1 X170.464 Y147.371 E12.80144
G1 X170.086 Y146.451 E12.89192
G1 X169.664 Y145.692 E12.97086
G1 X169.217 Y144.957 E13.04907
G1 X168.666 Y144.244 E13.13100
G1 X168.035 Y143.592 E13.21350
G1 X167.336 Y143.015 E13.29588
G1 X167.787 Y142.133 F3600.000
G1 F1500
G1 X168.241 Y142.432 E13.34535
G1 X168.932 Y142.969 E13.42489
G1 X169.568 Y143.568 E13.50436
G1 X170.175 Y144.264 E13.58832
G1 X170.681 Y144.969 E13.66729
G1 X171.117 Y145.715 E13.74582
G1 X171.335 Y146.161 E13.79098
G1 X171.527 Y146.614 E13.83571
G1 X171.797 Y147.406 E13.91178
G1 X171.919 Y147.866 E13.95505
G1 X172.090 Y148.802 E14.04158
G1 X172.146 Y149.363 E14.09288
G1 X172.165 Y150.237 E14.17236
G1 X172.133 Y150.802 E14.22380
G1 X172.082 Y151.261 E14.26582
G1 X171.935 Y152.063 E14.33995
G1 X171.816 Y152.531 E14.38387
G1 X171.669 Y152.998 E14.42837
G1 X171.354 Y153.796 E14.50636
G1 X171.135 Y154.250 E14.55220
G1 X170.893 Y154.688 E14.59770
G1 X170.416 Y155.418 E14.67701
G1 X170.108 Y155.822 E14.72323
G1 X169.776 Y156.210 E14.76967
G1 X169.234 Y156.761 E14.83989
G1 X168.567 Y157.328 E14.91948
G1 X167.944 Y157.769 E14.98889
G1 X167.197 Y158.204 E15.06751
G1 X166.751 Y158.423 E15.11267
G1 X166.298 Y158.614 E15.15740
G1 X165.506 Y158.885 E15.23347
G1 X165.046 Y159.007 E15.27674
G1 X164.110 Y159.178 E15.36327
G1 X163.549 Y159.234 E15.41457
G1 X162.675 Y159.253 E15.49405
G1 X162.110 Y159.221 E15.54549
G1 X161.651 Y159.170 E15.58751
G1 X160.849 Y159.023 E15.66165
G1 X160.381 Y158.903 E15.70556
G1 X159.914 Y158.757 E15.75007
G1 X159.116 Y158.442 E15.82805
G1 X158.662 Y158.223 E15.87390
G1 X158.224 Y157.981 E15.91940
G1 X157.494 Y157.504 E15.99870
G1 X157.090 Y157.195 E16.04493
G1 X156.702 Y156.863 E16.09136
G1 X156.152 Y156.321 E16.16158
G1 X155.585 Y155.655 E16.24117
G1 X155.144 Y155.032 E16.31058
G1 X154.708 Y154.285 E16.38920
G1 X154.490 Y153.839 E16.43436
G1 X154.298 Y153.386 E16.47910
G1 X154.027 Y152.594 E16.55516
G1 X153.906 Y152.134 E16.59844
G1 X153.734 Y151.198 E16.68496
G1 X153.678 Y150.637 E16.73626
G1 X153.660 Y149.765 E16.81554
G1 X153.714 Y148.964 E16.88851
G1 X153.778 Y148.502 E16.93091
G1 X153.867 Y148.037 E16.97403
G1 X154.080 Y147.230 E17.04986
G1 X154.240 Y146.764 E17.09466
G1 X154.427 Y146.302 E17.14000
G1 X154.810 Y145.525 E17.21874
G1 X155.065 Y145.092 E17.26441
G1 X155.344 Y144.671 E17.31038
G1 X155.881 Y143.981 E17.38992
G1 X156.480 Y143.345 E17.46938
G1 X157.176 Y142.737 E17.55335
G1 X157.882 Y142.231 E17.63232
G1 X158.627 Y141.796 E17.71084
G1 X159.074 Y141.577 E17.75601
G1 X159.527 Y141.386 E17.80074
G1 X160.318 Y141.115 E17.87680
G1 X160.778 Y140.993 E17.92008
G1 X161.715 Y140.822 E18.00667
G1 X162.183 Y140.773 E18.04947
G1 X163.057 Y140.746 E18.12900
G1 X163.949 Y140.802 E18.21023
G1 X164.410 Y140.866 E18.25254
G1 X164.876 Y140.955 E18.29566
G1 X165.677 Y141.167 E18.37105
G1 X166.614 Y141.517 E18.46201
G1 X167.387 Y141.898 E18.54033
G1 X167.735 Y142.102 E18.57704
G1 X167.787 Y142.171 F3600.000
G1 X167.131 Y142.667 F3600.000
G1 F1500
G1 X166.610 Y142.372 E18.65121
G1 X165.801 Y142.000 E18.76138
G1 F1500
G1 X165.452 Y141.873 E18.80309
G1 X164.683 Y141.692 E18.89205
G1 F1500
G1 X163.584 Y141.556 E19.03058
G1 E14.53058 F1800.00000
G92 E0
G1 X155.819 Y145.739 F3600.000
G1 E4.50000 F1800.00000
G1 F1500
G1 X155.527 Y146.283 E4.50168
G1 Z0.350 F3600.000
G1 E0.00168 F1800.00000
G92 E0
G1 X133.574 Y149.230 F3600.000
G1 E4.50000 F1800.00000
G1 F1500
G1 X131.010 Y146.666 E4.82969
G1 X132.030 Y145.424 E4.97580
G1 X132.590 Y144.883 E5.04659
G1 X133.209 Y144.409 E5.11751
G1 X133.882 Y144.007 E5.18879
G1 X134.603 Y143.684 E5.26065
G1 X135.366 Y143.445 E5.33336
G1 X136.160 Y143.299 E5.40673
G1 X136.832 Y143.251 E5.46798
G1 X137.491 Y143.267 E5.52796
G1 X138.143 Y143.347 E5.58768
G1 X138.781 Y143.488 E5.64706
G1 X139.526 Y143.740 E5.71860
G1 X140.105 Y144.008 E5.77664
G1 X140.648 Y144.324 E5.83377
G1 X141.158 Y144.687 E5.89065
G1 X141.630 Y145.095 E5.94739
G1 X142.063 Y145.544 E6.00410
G1 X142.453 Y146.031 E6.06088
G1 X142.798 Y146.554 E6.11785
G1 X143.094 Y147.110 E6.17512
G1 X143.338 Y147.696 E6.23280
G1 X143.528 Y148.308 E6.29106
G1 X143.660 Y148.943 E6.35002
G1 X143.842 Y150.629 E6.50427
G1 X143.803 Y150.629 E6.50775
G1 X143.383 Y152.179 E6.65379
G1 X143.169 Y152.728 E6.70736
G1 X142.914 Y153.243 E6.75957
G1 X142.613 Y153.740 E6.81243
G1 X142.104 Y154.411 E6.88903
G1 X141.508 Y155.019 E6.96642
G1 X140.840 Y155.548 E7.04391
G1 X140.117 Y155.986 E7.12085
G1 X139.577 Y156.239 E7.17505
G1 X138.772 Y156.514 E7.25235
G1 X138.188 Y156.645 E7.30683
G1 X137.597 Y156.724 E7.36106
G1 X136.993 Y156.751 E7.41602
G1 X136.403 Y156.726 E7.46970
G1 X135.579 Y156.603 E7.54542
G1 X135.027 Y156.460 E7.59734
G1 X134.503 Y156.277 E7.64782
G1 X133.990 Y156.049 E7.69881
G1 X133.296 Y155.651 E7.77159
G1 X132.846 Y155.328 E7.82197
G1 X132.424 Y154.971 E7.87224
G1 X131.871 Y154.400 E7.94446
G1 X131.522 Y153.958 E7.99566
G1 X131.093 Y153.285 E8.06825
G1 X130.842 Y152.786 E8.11905
G1 X130.634 Y152.274 E8.16930
G1 X130.087 Y150.516 E8.33672
G1 X133.705 Y150.516 E8.66567
G1 X134.212 Y151.592 E8.77391
G1 X134.323 Y151.773 E8.79317
G1 X134.543 Y152.065 E8.82643
G1 X134.952 Y152.471 E8.87881
G1 X135.364 Y152.759 E8.92457
G1 X135.682 Y152.926 E8.95722
G1 X135.880 Y153.006 E8.97658
G1 X136.385 Y153.147 E9.02427
G1 X136.861 Y153.202 E9.06783
G1 X137.155 Y153.200 E9.09458
G1 X137.469 Y153.168 E9.12330
G1 X137.957 Y153.056 E9.16881
G1 X138.239 Y152.953 E9.19613
G1 X138.519 Y152.818 E9.22436
G1 X138.783 Y152.658 E9.25246
G1 X139.030 Y152.473 E9.28049
G1 X139.258 Y152.266 E9.30850
G1 X139.465 Y152.038 E9.33650
G1 X139.649 Y151.791 E9.36453
G1 X139.810 Y151.527 E9.39264
G1 X139.945 Y151.247 E9.42087
G1 X140.048 Y150.965 E9.44819
G1 X140.160 Y150.477 E9.49369
G1 X140.192 Y150.165 E9.52225
G1 X140.192 Y149.797 E9.55569
